X: 1
T: Gavotte
R: slide
M: 12/8
L: 1/8
K: Ador
|: AEAB c2 Bc dc A2 | AEAB c2 Bc dc A2 :|
| e2 Ae-eAcA BdcA | e2 Ae-eAcA Bc A2 |
e2 Ae-eAcA BdcA | e2 Ae-eAcA Bc A2 |


Tune 2081	Setting 27858

